sanis/img/main/benefits/4.svg

<svg width="81" height="68" viewBox="0 0 81 68" fill="none" xmlns="http://www.w3.org/2000/svg">
<path d="M29.1445 48.75L49.5298 48.75" stroke="black" stroke-width="3" stroke-miterlimit="3.8637"/>
<path d="M2.10791 44.2258H6.5456V35.4492H2.18715" stroke="black" stroke-width="3" stroke-miterlimit="3.8637"/>
<path fill-rule="evenodd" clip-rule="evenodd" d="M0.710892 20.1876H26.779V14.4609L39.2684 24.1379L26.779 34.2082V28.7785H0.507812" fill="#F9C859"/>
<path d="M0.710892 20.1876H26.779V14.4609L39.2684 24.1379L26.779 34.2082V28.7785H0.507812" stroke="black" stroke-width="3" stroke-miterlimit="3.8637"/>
<path d="M14.5175 62.2618C18.919 62.2618 22.4871 58.7334 22.4871 54.3809C22.4871 50.0284 18.919 46.5 14.5175 46.5C10.116 46.5 6.54785 50.0284 6.54785 54.3809C6.54785 58.7334 10.116 62.2618 14.5175 62.2618Z" stroke="black" stroke-width="3" stroke-miterlimit="3.8637"/>
<path d="M63.8139 62.2618C68.2154 62.2618 71.7835 58.7334 71.7835 54.3809C71.7835 50.0284 68.2154 46.5 63.8139 46.5C59.4124 46.5 55.8442 50.0284 55.8442 54.3809C55.8442 58.7334 59.4124 62.2618 63.8139 62.2618Z" stroke="black" stroke-width="3" stroke-miterlimit="3.8637"/>
<path d="M14.5086 56.408C15.6436 56.408 16.5636 55.4982 16.5636 54.3759C16.5636 53.2536 15.6436 52.3438 14.5086 52.3438C13.3737 52.3438 12.4536 53.2536 12.4536 54.3759C12.4536 55.4982 13.3737 56.408 14.5086 56.408Z" stroke="black" stroke-width="3" stroke-miterlimit="3.8637"/>
<path d="M63.805 56.408C64.94 56.408 65.86 55.4982 65.86 54.3759C65.86 53.2536 64.94 52.3438 63.805 52.3438C62.6701 52.3438 61.75 53.2536 61.75 54.3759C61.75 55.4982 62.6701 56.408 63.805 56.408Z" stroke="black" stroke-width="3" stroke-miterlimit="3.8637"/>
<path d="M71.9912 53.4074L78.5692 47.92V31.7761L66.3968 13.8164H49.4907" stroke="black" stroke-width="3" stroke-miterlimit="3.8637"/>
<path d="M78.6548 42.8642H73.0918V37.3945H78.6069" stroke="black" stroke-width="3" stroke-miterlimit="3.8637"/>
<path d="M78.6121 32.5547H54.9297" stroke="black" stroke-width="3" stroke-miterlimit="3.8637"/>
<path d="M54.5469 43.944L54.5469 14.4609" stroke="black" stroke-width="3" stroke-miterlimit="3.8637"/>
<path d="M56.0184 42.5703H49.8125" stroke="black" stroke-width="3"/>
<path d="M54.3926 18.9922L69.9242 18.9922" stroke="black" stroke-width="3" stroke-miterlimit="3.8637"/>
<path d="M23.1914 53.9609L56.4743 53.9609" stroke="black" stroke-width="3" stroke-miterlimit="3.8637"/>
<path d="M6.53537 53.9619L1.54297 52.5897V4.59375H49.3924V49.7099" stroke="black" stroke-width="3" stroke-miterlimit="3.8637"/>
</svg>

<svg width="81" height="68" fill="none" xmlns="http://www.w3.org/2000/svg"><path d="M29.145 48.75H49.53M2.108 44.226h4.438v-8.777H2.187" stroke="#000" stroke-width="3" stroke-miterlimit="3.864"/><path fill-rule="evenodd" clip-rule="evenodd" d="M.71 20.188h26.07V14.46l12.49 9.677-12.49 10.07v-5.43H.508" fill="#F9C859"/><path d="M.71 20.188h26.07V14.46l12.49 9.677-12.49 10.07v-5.43H.508m14.01 33.485c4.401 0 7.97-3.529 7.97-7.881 0-4.353-3.569-7.881-7.97-7.881-4.402 0-7.97 3.528-7.97 7.88 0 4.353 3.568 7.882 7.97 7.882zm49.296 0c4.401 0 7.97-3.529 7.97-7.881 0-4.353-3.569-7.881-7.97-7.881-4.402 0-7.97 3.528-7.97 7.88 0 4.353 3.568 7.882 7.97 7.882z" stroke="#000" stroke-width="3" stroke-miterlimit="3.864"/><path d="M14.509 56.408c1.135 0 2.055-.91 2.055-2.032 0-1.122-.92-2.032-2.055-2.032-1.135 0-2.055.91-2.055 2.032 0 1.122.92 2.032 2.055 2.032zm49.296 0c1.135 0 2.055-.91 2.055-2.032 0-1.122-.92-2.032-2.055-2.032-1.135 0-2.055.91-2.055 2.032 0 1.122.92 2.032 2.055 2.032zm8.186-3.001l6.578-5.487V31.776l-12.172-17.96H49.49" stroke="#000" stroke-width="3" stroke-miterlimit="3.864"/><path d="M78.655 42.864h-5.563v-5.47h5.515m.005-4.839H54.93m-.383 11.389V14.461" stroke="#000" stroke-width="3" stroke-miterlimit="3.864"/><path d="M56.018 42.57h-6.206" stroke="#000" stroke-width="3"/><path d="M54.393 18.992h15.531M23.191 53.96h33.283m-49.939.002L1.543 52.59V4.594h47.85V49.71" stroke="#000" stroke-width="3" stroke-miterlimit="3.864"/></svg>
